X:133
T:Johnny of Braidieslee (mainly the same as our own but not so good)
Z:Jack Campin - http://www.campin.me.uk
S:Blaikie MS (NLS MS.1578) p39, Blaikie #127
M:2/4
L:1/8
V:1 midi program 1 74
V:2 midi program 1 46 bass middle = d transpose -24
Q:1/4=72
K:C
[V:1] G|Gccc|cc ce/e/|dde>d|c3 G|AAAc|AG/G/ GG/A/|c2 cA|AG/G/ GA/B/|c3|]
[V:2] z|c2e2|c2 c'2  |G2g2 |c2e2|f2f2|fe    ec   |f2 f2|g2    G2   |c3|]
W:Transcription (c) Jack Campin 2009, no mirroring or republication without permission

